X: 33967
T: Redican's Mother
R: slip jig
M: 9/8
K: Dmajor
F.A.A FAd AFD|F.A.A FAd B2 A|F.A.A FAd AFD|EDd DFA B2 A:|
~f3 f.af edB|A.f.f fef gfe|~f3 f.af edB|AFE DFA B2 A:|

